X:1
T:Title
%%score ( 1 2 ) ( 3 4 )
L:1/8
Q:1/4=110
M:4/4
K:Bb
V:1 treble nm="Grand Piano, Soprano"
V:2 treble 
V:3 bass nm="Choir Pad, Pitt, by E. B. Smith, 1878"
V:4 bass 
V:1
 [DF]2 [DF]2 [_D=E][=DF] [DB]2 | [Fd]2 [Ed]2 [Ec]2 z2 | [DB]2 [EA]2 AG [EF]2 | [Ec]2 [DB]4 z2 | %4
w: By~E.~B.~Smith * * * *||||
 [DF]2 [DF]2 [_D=E][=DF] [DB]2 | [Fd]2 [Gd]2 [Gc]2 z2 | [EG]2 [EA]2 GF [Fd]2- | [Fd][Ec] [DB]4 z2 | %8
w: ||||
 [DF]2 [EF]2 FG [EA]2 | [Ec]2 [Ec]2 [DB]2 z2 | [DF]2 [EF]2 FG [EA]2 | [Ec]2 [DB]4 z2 | %12
w: ||||
 [DB]2 [DB]2 [DB][Ec] [Fd]2 | [_Af]2 [=Af]2 [Ge]2 z2 | [Ec]2 [DB]2 [CA][Ec] [Fd]2- | %15
w: |||
 [Fd][Ec] [DB]6- | [DB]2 z2 z4 |] %17
w: ||
V:2
 x8 | x8 | z4 E2 z2 | x8 | x8 | x8 | z4 E2 z2 | x8 | z4 E2 z2 | x8 | z4 E2 z2 | x8 | x8 | x8 | x8 | %15
 x8 | x8 |] %17
V:3
 [B,,B,]2 [B,,B,]2 [B,,B,]2 [B,,B,]2 | [B,,B,]2 [F,A,]2 [F,A,]2 z2 | [F,B,]2 [F,C]2 CB, [F,A,]2 | %3
 [F,A,]2 [B,,B,]4 z2 | [B,,B,]2 [B,,B,]2 [B,,B,]2 [B,,B,]2 | [B,,B,]2 [E,B,]2 [E,B,]2 z2 | %6
 [E,B,]2 F,2 [F,A,]2 [F,A,]2- | [F,A,][F,A,] [B,,B,]4 z2 | [B,,B,]2 [F,A,]2 A,B, [F,C]2 | %9
 [F,A,]2 [B,,B,]2 [B,,B,]2 z2 | [B,,B,]2 [F,A,]2 A,B, [F,C]2 | [F,A,]2 [B,,B,]4 z2 | %12
 [B,,B,]2 [B,,B,]2 [B,,B,]2 [B,,B,]2 | [B,,B,]2 [E,B,]2 [E,B,]2 z2 | [E,G,]2 F,2 F,2 [F,A,]2- | %15
 [F,A,][F,A,] [B,,B,]6- | [B,,B,]2 z2 z4 |] %17
V:4
 x8 | x8 | z4 F,2 z2 | x8 | x8 | x8 | x8 | x8 | z4 F,2 z2 | x8 | z4 F,2 z2 | x8 | x8 | x8 | x8 | %15
 x8 | x8 |] %17

